src/assets/icons/close.svg

<svg width="30" height="30" viewBox="0 0 30 30" fill="inherit" xmlns="http://www.w3.org/2000/svg">
    <path d="M0 26.9864L0.00502513 24.0433L3.0201 24.0483L3.01508 26.9914L0 26.9864ZM0.00502513 24.0433L0.0100503 21.0247L3.02513 21.0297L3.0201 24.0483L0.00502513 24.0433ZM0.00502513 21.0247L0.0100503 18.0211L3.02513 18.0262L3.0201 21.0297L0.00502513 21.0247ZM0.0100503 18.0211L0.0150754 15.0025L3.03015 15.0075L3.02513 18.0262L0.0100503 18.0211ZM0.0201005 11.999L0.0251256 8.98038L3.0402 8.98541L3.03518 12.004L0.0201005 11.999ZM0.0201005 8.98038L0.0251256 5.96176L3.0402 5.9668L3.03518 8.98541L0.0201005 8.98038ZM0.0251256 5.96176L0.0301508 3.01861L3.04523 3.02365L3.0402 5.9668L0.0251256 5.96176ZM0.0301508 3.01861L0.0351759 0L3.05025 0.00503102L3.04523 3.02365L0.0301508 3.01861ZM6.01508 26.9965L6.01005 29.9698L3.01005 29.9648L3.01508 26.9914L6.01508 26.9965ZM3.01508 26.9914L3.0201 24.0483L6.0201 24.0533L6.01508 26.9965L3.01508 26.9914ZM3.02513 18.0262L3.03015 15.0075L6.03015 15.0126L6.02513 18.0312L3.02513 18.0262ZM3.03015 15.0075L3.03518 12.004L6.03518 12.0091L6.03015 15.0126L3.03015 15.0075ZM3.03518 12.004L3.0402 8.98541L6.0402 8.99044L6.03518 12.0091L3.03518 12.004ZM3.04523 3.02365L3.05025 0.00503102L6.05025 0.010062L6.04523 3.02868L3.04523 3.02365ZM9.03015 27.0015L9.02513 29.9748L6.01005 29.9698L6.01508 26.9965L9.03015 27.0015ZM6.01508 26.9965L6.0201 24.0533L9.03518 24.0584L9.03015 27.0015L6.01508 26.9965ZM6.03015 15.0126L6.03518 12.0091L9.05025 12.0141L9.04523 15.0126H6.03015ZM6.04523 3.02868L6.05025 0.010062L9.06533 0.0150931L9.0603 3.03371L6.04523 3.02868ZM11.9698 27.0015L11.9648 29.9748L9.02513 29.9698L9.03015 26.9965L11.9698 27.0015ZM9.03015 27.0015L9.03518 24.0584L11.9749 24.0634L11.9698 27.0065L9.03015 27.0015ZM9.03518 24.0584L9.0402 21.0397L11.9799 21.0448L11.9749 24.0634L9.03518 24.0584ZM9.05528 5.97183L9.0603 3.02868L12 3.03371L11.995 5.97686L9.05528 5.97183ZM9.0603 3.02868L9.06533 0.010062L12.005 0.0150931L12 3.03371L9.0603 3.02868ZM14.9849 27.0065L14.9799 29.9799L11.9648 29.9748L11.9698 27.0015L14.9849 27.0065ZM11.9698 27.0015L11.9749 24.0584L14.99 24.0634L14.9849 27.0065L11.9698 27.0015ZM11.9749 24.0584L11.9799 21.0397L14.995 21.0448L14.99 24.0634L11.9749 24.0584ZM11.9799 21.0397L11.9849 18.0362L15 18.0413L14.995 21.0448L11.9799 21.0397ZM11.995 8.99547L12 5.97686L15.0151 5.98189L15.0101 9.0005L11.995 8.99547ZM12 5.97686L12.005 3.03371L15.0201 3.03874L15.0151 5.98189L12 5.97686ZM14.9849 27.0065L14.99 24.0634L18.005 24.0684L18 27.0116L14.9849 27.0065ZM14.99 24.0634L14.995 21.0448L18.01 21.0498L18.005 24.0684L14.99 24.0634ZM15.0151 5.98189L15.0201 3.03874L18.0352 3.04377L18.0302 5.98692L15.0151 5.98189ZM15.0151 3.03874L15.0201 0.0201241L18.0352 0.0251551L18.0302 3.04377L15.0151 3.03874ZM21 27.0166L20.995 29.9899L17.995 29.9849L18 27.0116L21 27.0166ZM18 27.0116L18.005 24.0684L21.005 24.0735L21 27.0166L18 27.0116ZM18.0151 15.0277L18.0201 12.0241L21.0201 12.0292L21.0151 15.0327L18.0151 15.0277ZM18.0302 3.03874L18.0352 0.0201241L21.0352 0.0251551L21.0302 3.04377L18.0302 3.03874ZM24.0151 27.0216L24.01 29.995L20.995 29.9899L21 27.0166L24.0151 27.0216ZM21 27.0166L21.005 24.0735L24.0201 24.0785L24.0151 27.0216L21 27.0166ZM21.0151 18.0513L21.0201 15.0327L24.0352 15.0377L24.0302 18.0563L21.0151 18.0513ZM21.0151 15.0327L21.0201 12.0292L24.0352 12.0342L24.0302 15.0377L21.0151 15.0327ZM21.0201 12.0241L21.0251 9.00553L24.0402 9.01057L24.0352 12.0292L21.0201 12.0241ZM21.0302 3.04377L21.0352 0.0251551L24.0503 0.0301861L24.0452 3.0488L21.0302 3.04377ZM27.0151 27.0216L27.0101 29.995L24.01 29.9899L24.0151 27.0166L27.0151 27.0216ZM24.0151 27.0216L24.0201 24.0785L27.0201 24.0835L27.0151 27.0267L24.0151 27.0216ZM24.0201 24.0735L24.0251 21.0548L27.0251 21.0599L27.0201 24.0785L24.0201 24.0735ZM24.0251 21.0548L24.0302 18.0513L27.0302 18.0563L27.0251 21.0599L24.0251 21.0548ZM24.0302 18.0513L24.0352 15.0327L27.0352 15.0377L27.0302 18.0563L24.0302 18.0513ZM24.0302 15.0327L24.0352 12.0292L27.0352 12.0342L27.0302 15.0377L24.0302 15.0327ZM24.0352 12.0292L24.0402 9.01057L27.0402 9.0156L27.0352 12.0342L24.0352 12.0292ZM24.0402 9.01057L24.0452 5.99195L27.0452 5.99698L27.0402 9.0156L24.0402 9.01057ZM24.0452 5.99195L24.0503 3.0488L27.0503 3.05383L27.0452 5.99698L24.0452 5.99195ZM24.0452 3.0488L24.0503 0.0301861L27.0503 0.0352172L27.0452 3.05383L24.0452 3.0488ZM29.9699 27.0267L29.9648 30L27.0101 29.995L27.0151 27.0216L29.9699 27.0267ZM27.0151 27.0216L27.0201 24.0785L29.9749 24.0835L29.9699 27.0267L27.0151 27.0216ZM27.0201 24.0785L27.0251 21.0599L29.9799 21.0649L29.9749 24.0835L27.0201 24.0785ZM27.0251 21.0599L27.0302 18.0563L29.9849 18.0614L29.9799 21.0649L27.0251 21.0599ZM27.0302 15.0377L27.0352 12.0342L29.99 12.0392L29.9849 15.0428L27.0302 15.0377ZM27.0352 12.0342L27.0402 9.0156L29.995 9.02063L29.99 12.0392L27.0352 12.0342ZM27.0402 9.0156L27.0452 5.99698L30 6.00201L29.995 9.02063L27.0402 9.0156ZM27.0452 5.99698L27.0503 3.05383L30.005 3.05886L30 6.00201L27.0452 5.99698Z" fill="#inherit"/>
</svg>

<svg width="30" height="30" fill="inherit" xmlns="http://www.w3.org/2000/svg"><path d="m0 26.986.005-2.943 3.015.005-.005 2.943L0 26.986zm.005-2.943.005-3.018 3.015.005-.005 3.018-3.015-.005zm0-3.018L.01 18.02l3.015.005-.005 3.004-3.015-.005zM.01 18.02l.005-3.019 3.015.005-.005 3.02L.01 18.02zM.02 12 .025 8.98l3.015.005-.005 3.019-3.015-.005zm0-3.019.005-3.018 3.015.005-.005 3.018L.02 8.98zm.005-3.018L.03 3.019l3.015.005-.005 2.943-3.015-.005zM.03 3.019.035 0 3.05.005l-.005 3.019L.03 3.019zm5.985 23.978L6.01 29.97l-3-.005.005-2.974 3 .006zm-3-.006.005-2.943 3 .005-.005 2.944-3-.006zm.01-8.965.005-3.018 3 .005-.005 3.018-3-.005zm.005-3.018.005-3.004 3 .005-.005 3.004-3-.005zm.005-3.004.005-3.019 3 .005-.005 3.02-3-.006zm.01-8.98L3.05.005l3 .005-.005 3.019-3-.005zM9.03 27l-.005 2.974-3.015-.005.005-2.973 3.015.005zm-3.015-.005.005-2.943 3.015.005-.005 2.944-3.015-.005zm.015-11.983.005-3.004 3.015.005-.005 2.999H6.03zm.015-11.984L6.05.01l3.015.005-.005 3.019-3.015-.005zM11.97 27l-.005 2.974-2.94-.005.005-2.973 2.94.005zm-2.94 0 .005-2.943 2.94.005-.005 2.944L9.03 27zm.005-2.943.005-3.018 2.94.005-.005 3.018-2.94-.005zm.02-18.086.005-2.943 2.94.005-.005 2.943-2.94-.005zm.005-2.943L9.065.01l2.94.005L12 3.034l-2.94-.005zm5.925 23.977-.005 2.974-3.015-.005L11.97 27l3.015.005zm-3.015-.005.005-2.943 3.015.005-.005 2.944L11.97 27zm.005-2.943.005-3.018 3.015.005-.005 3.018-3.015-.005zm.005-3.018.005-3.004 3.015.005-.005 3.004-3.015-.005zm.015-12.045L12 5.977l3.015.005L15.01 9l-3.015-.006zM12 5.977l.005-2.943 3.015.005-.005 2.943L12 5.977zm2.985 21.03.005-2.944 3.015.005L18 27.012l-3.015-.006zm.005-2.944.005-3.018 3.015.005-.005 3.018-3.015-.005zm.025-18.081.005-2.943 3.015.005-.005 2.943-3.015-.005zm0-2.943L15.02.02l3.015.005-.005 3.019-3.015-.005zM21 27.017l-.005 2.973-3-.005.005-2.973 3 .005zm-3-.005.005-2.944 3 .005L21 27.017l-3-.005zm.015-11.984.005-3.004 3 .005-.005 3.004-3-.005zm.015-11.99L18.035.02l3 .005-.005 3.019-3-.005zm5.985 23.984-.005 2.973-3.015-.005.005-2.973 3.015.005zM21 27.017l.005-2.944 3.015.005-.005 2.944L21 27.017zm.015-8.966.005-3.018 3.015.005-.005 3.018-3.015-.005zm0-3.018.005-3.004 3.015.005-.005 3.004-3.015-.005zm.005-3.009.005-3.018 3.015.005-.005 3.018-3.015-.005zm.01-8.98.005-3.019L24.05.03l-.005 3.019-3.015-.005zm5.985 23.978-.005 2.973-3-.005.005-2.973 3 .005zm-3 0 .005-2.944 3 .006-.005 2.943-3-.005zm.005-2.948.005-3.02 3 .006-.005 3.018-3-.005zm.005-3.02.005-3.003 3 .005-.005 3.004-3-.005zm.005-3.003.005-3.018 3 .005-.005 3.018-3-.005zm0-3.018.005-3.004 3 .005-.005 3.004-3-.005zm.005-3.004.005-3.018 3 .005-.005 3.018-3-.005zm.005-3.018.005-3.019 3 .005-.005 3.019-3-.005zm.005-3.019.005-2.943 3 .005-.005 2.943-3-.005zm0-2.943L24.05.03l3 .005-.005 3.019-3-.005zm5.925 23.978L29.965 30l-2.955-.005.005-2.973 2.955.005zm-2.955-.005.005-2.944 2.955.006-.005 2.943-2.955-.005zm.005-2.944.005-3.018 2.955.005-.005 3.018-2.955-.005zm.005-3.018.005-3.004 2.955.005-.005 3.004-2.955-.005zm.005-6.022.005-3.004 2.955.005-.005 3.004-2.955-.005zm.005-3.004.005-3.018 2.955.005-.005 3.018-2.955-.005zm.005-3.018.005-3.019L30 6.002l-.005 3.019-2.955-.005zm.005-3.019.005-2.943 2.955.005L30 6.002l-2.955-.005z" fill="#inherit"/></svg>
